X:1
T:Title
%%score ( 1 2 ) ( 3 4 ) { ( 5 7 9 ) | ( 6 8 ) }
L:1/8
Q:1/4=92
M:4/4
K:Bb
V:1 treble nm="Akkordion"
V:2 treble 
V:3 bass nm="Choir Aahs"
V:4 bass 
V:5 bass nm="Grand Piano, Piano"
V:7 bass 
V:9 bass 
V:6 bass 
V:8 bass 
V:1
 F2 d2 c2 B2 | z4 F2 z2 | B,2 z2 E2 D2 | .F2 .E2 .D2 B,2[K:treble] | F2 d2 c2 B2 | z4 F2 z2 | %6
w: E.~O.~Excell * * *||||||
 z B,C[B,C] DC[B,D][B,=E] | z F3- F2 z2 | EFEF d2 c2 | DFDF c2 B2 | CDEF A3 G | F>G FE D4 | %12
w: ||||||
 EFEF d2 c2 | DFDF c2 B2 | BDAG FB,ED | D2 C2 B,4 | e3 e e2 e2 | d2 dd- d d3 | ABcd f3 e | %19
w: |||||||
 d>e dc B4 | e3 e e2 e2 | d3 d d2 d2 | d2 e2 f2 gf | f2 e2 d4 | %24
w: |||||
 z [B,DF] z [B,DF] z [CEF] z [B,DF] | z [B,DF] z [B,EB] z [B,DF] z [B,DF] | %26
w: ||
 z[K:bass] [F,B,D][F,B,D][F,B,D] z [G,B,E] z [G,B,D] | %27
w: |
 z [F,A,CE] z [F,A,CE] z [F,B,D][F,B,D][F,B,D] | z[K:treble] [B,DF] z [B,DF] z [CEF] z [B,DF] | %29
w: ||
 z [B,DF] z [B,EB] z [B,DF] z [B,DF] | z [A,CF][A,CF][A,CF] z [G,B,C=E] z [G,B,CE] | %31
w: ||
 z [A,CF][A,CF][A,CF] [A,CEF]2 z2 | EFEF d2 c2 | DFDF c2 B2 | CDEF A3 G | F>G FE D4 | EFEF d2 c2 | %37
w: ||||||
 DFDF c2 B2 | BDAG FB,ED | D3 C B,4 | eeee e2 e2 | d8 | eeee e2 e2 | d8 | f2 f2 f2 f2 | d8 | %46
w: |||||||||
 f2 f2 f2 f2 |[M:3/4] [Bb]6 |] %48
w: ||
V:2
 z D z F z E z D | [B,D]D[EG]G z D[B,D]D | z F,B,[F,B,] z F, z F, | %3
 D-[F,D]C-[F,C] B,-[F,B,] z[K:treble] D | z D z F z E z D | [B,D]D[EG]G z D[B,D]D | C2 z2 z4 | %7
 .[A,CF]2 [A,C][B,D] [CE]2 z2 | x8 | x8 | x8 | x8 | x8 | x8 | x8 | x8 | x8 | x8 | x8 | x8 | x8 | %21
 x8 | x8 | x8 | x8 | x8 | x[K:bass] x7 | x8 | x[K:treble] x7 | x8 | x8 | x8 | x8 | x8 | x8 | x8 | %36
 x8 | x8 | x8 | x8 | x8 | x8 | x8 | x8 | x8 | x8 | x8 |[M:3/4] x6 |] %48
V:3
 [B,,,B,,]2 [B,,F,]2 [B,,,B,,]2 [B,,F,B,]2 | [B,,,B,,]2 [B,,F,B,]2 [B,,,B,,]2 [B,,F,B,]2 | %2
 [D,,D,]4 [C,,C,]2 [B,,,B,,]2 | F,,4 B,,4 | [B,,,B,,]2 [B,,F,B,]2 B,,,2 [B,,F,B,]2 | %5
 [B,,,B,,]2 [B,,F,B,]2 [B,,,B,,]2 [B,,D,F,]2 | [C,,C,]2 [C,=E,G,]2 [C,,C,]2 [C,E,G,]2 | %7
 [F,,F,]6 z2 | E3 E E2 E2 | D3 D D2 D2 | A,B,CD F3 E | D>E DC B,4 | E3 E E2 E2 | D3 D D2 D2 | %14
 D2 E2 _A2 GF | F2 E2 D4 | z FE[EF] [Ed]2 [Ec]2 | z FD[DF] [Dc]2 [DB]2 | %18
 [A,C][B,D][CE][DF] [FA]3 [EG] | [DF]>[EG] [DF][CE] [B,D]4 | z FE[EF] [Ed]2 [Ec]2 | %21
 z FD[DF] [Dc]2 [DB]2 | [DB]DAG z[K:bass] B,B,-[B,D] | D2 C2 z4 | F,2 D2 C2 B,2 | D,2 G,2 F,2 D,2 | %26
 B,,3 B,, E,2 D,2 | C,2 [F,,F,]2 B,,4 | F,2 D2 C2 B,2 | D,2 G,2 F,2 D,2 | %30
 C,3 C, D,C,[B,,D,][G,,=E,] | [F,,F,]6 z2 | E3 E E2 E2 | D3 D D2 D2 | FFFF F3 E | D>E DC B,4 | %36
 E3 E E2 E2 | D3 D D2 D2 | DDEE F2 B,2 | B,3 A, B,4 | FGAB c2 c2 | B8 | FGAB c2 c2 | B8 | %44
 FGAB c2 d2 | B8 | FGAB c2 d2 |[M:3/4] F6 |] %48
V:4
 x8 | x8 | x8 | x8 | x8 | x8 | x8 | x8 | x8 | x8 | x8 | x8 | x8 | x8 | x8 | x8 | E2 z2 z4 | %17
 D2 z2 z4 | x8 | x8 | E2 z2 z4 | D2 z2 z4 | z2 E2 F2[K:bass] .E2 | z F, z F, [B,D]4 | x8 | x8 | %26
 x8 | x8 | x8 | x8 | x8 | x8 | x8 | x8 | x8 | x8 | x8 | x8 | x8 | x8 | x8 | x8 | x8 | x8 | x8 | %45
 x8 | x8 |[M:3/4] x6 |] %48
V:5
 z8 | z8 | z8 | z8 | z8 | z8 | z8 | z8 | F,2 C2 F,,2 C2 | B,,3 F, B,,2 B,2 | F,,2 F,2 F,,2 F,2 | %11
 F,,2 F,2 B,,2 F,2 | F,2 C2 F,2 C2 | B,,2 B,2 B,,2 B,2 | B,2 F,2 _A,2 G,2 | F,2 F,,2 z F, F,2 | %16
 F,2 A,2 F,2 A,2 | B,,2 B,2 B,,,2 B,2 | F,,2 F,2 F,,2 F,2 | F,,2 F,2 B,,2 F,2 | F,2 C2 F,2 C2 | %21
 B,,2 B,2 B,,2 B,2 | E,2 F,2 _A,2 G,2 | F,2 F,,2 z F, F,2 | z8 | z8 | z8 | z8 | z8 | z8 | z8 | z8 | %32
 A4 A2 A2 | B3 B B2 B2 | ABcd f3 A | B>B BF F4 | A4 A2 A2 | B4 F2 F2 | FFFA BA G2 | %39
 F4[K:bass][K:treble] z4 | ABcd e2 f2 | f8 | ABcd e2 f2 | f8 | ABcd e2 f2 | f8 | ABcd e2 f2 | %47
[M:3/4] d6 |] %48
V:6
 z8 | z8 | z8 | z8 | z8 | z8 | z8 | z8 | F,,2 F,2 z2 [F,A,]2 | B,,,3 B,, B,,,2 [B,,D,F,]2 | z8 | %11
 z8 | F,,2 [F,A,]2 F,,2 [F,A,]2 | B,,,2 [B,,F,]2 B,,,2 [B,,F,]2 | [B,,F,]2 C,2 D,2 E,2 | z8 | %16
 F,,2 F,2 F,,2 F,2 | B,,,2 [B,,F,]2 z2 [B,,F,]2 | z8 | z8 | F,,2 [F,A,]2 F,,2 [F,A,]2 | %21
 B,,,2 [B,,F,]2 B,,,2 [B,,F,]2 | B,,2 C,2 D,2 E,2 | z8 | z8 | z8 | z8 | z8 | z8 | z8 | z8 | z8 | %32
 F,2 z A F,2 F,2 | B,,3 B,, B,,2 B,,2 | F,2 F,2 F,3 F, | F,2 F,2 B,,4 | F,2 z A F,2 F,2 | %37
 B,,2 z[K:treble] B[K:bass] B,,2 B,,2 | B,,2 C,2 D,2 E,2 | F,2 F,,2 B,,4 | F,F,F,F, F,4 | %41
 B,B,F,D, B,,4 | F,F,F,F, F,4 | B,B,F,D, B,,4 | F,F,F,F, F,4 | B,B,F,D, B,,4 | F,F,F,F, F,4 | %47
[M:3/4] [B,,B,]6 |] %48
V:7
 x8 | x8 | x8 | x8 | x8 | x8 | x8 | x8 | x8 | x8 | x8 | x8 | x8 | x8 | x8 | z4 B,,4 | x8 | x8 | %18
 x8 | x8 | x8 | x8 | x8 | z4 B,,4 | x8 | x8 | x8 | x8 | x8 | x8 | x8 | x8 | x8 | x8 | x8 | x8 | %36
 x8 | x8 | x8 | z2[K:bass] z E[K:treble] D4 | x8 | x8 | x8 | x8 | x8 | x8 | x8 |[M:3/4] x6 |] %48
V:8
 x8 | x8 | x8 | x8 | x8 | x8 | x8 | x8 | x8 | x8 | x8 | x8 | x8 | x8 | x8 | x8 | x8 | x8 | x8 | %19
 x8 | x8 | x8 | x8 | x8 | x8 | x8 | x8 | x8 | x8 | x8 | x8 | x8 | z2 F,2 z4 | x8 | x8 | x8 | %36
 z2 F,2 z4 | z2 B,,2[K:treble][K:bass] z4 | x8 | x8 | x8 | x8 | x8 | x8 | x8 | x8 | x8 | %47
[M:3/4] x6 |] %48
V:9
 x8 | x8 | x8 | x8 | x8 | x8 | x8 | x8 | x8 | x8 | x8 | x8 | x8 | x8 | x8 | x8 | x8 | x8 | x8 | %19
 x8 | x8 | x8 | x8 | x8 | x8 | x8 | x8 | x8 | x8 | x8 | x8 | x8 | x8 | x8 | x8 | x8 | x8 | x8 | %38
 x8 | z2[K:bass] F,2[K:treble] z4 | x8 | x8 | x8 | x8 | x8 | x8 | x8 |[M:3/4] x6 |] %48

